svg/car_electric_outline.svg

<svg xmlns="http://www.w3.org/2000/svg" viewBox="0 0 24 24"><path d="M18.92 2c-.2-.58-.76-1-1.42-1h-11c-.66 0-1.21.42-1.42 1L3 8v8c0 .55.45 1 1 1h1c.55 0 1-.45 1-1v-1h12v1c0 .55.45 1 1 1h1c.55 0 1-.45 1-1V8zM6.85 3h10.29l1.08 3.11H5.77zM19 13H5V8h14zM7.5 9c.83 0 1.5.67 1.5 1.5S8.33 12 7.5 12 6 11.33 6 10.5 6.67 9 7.5 9m9 0c.83 0 1.5.67 1.5 1.5s-.67 1.5-1.5 1.5-1.5-.67-1.5-1.5.67-1.5 1.5-1.5M7 20h4v-2l6 3h-4v2z"/></svg>

<?xml version="1.0" encoding="UTF-8"?><!DOCTYPE svg PUBLIC "-//W3C//DTD SVG 1.1//EN" "http://www.w3.org/Graphics/SVG/1.1/DTD/svg11.dtd"><svg xmlns="http://www.w3.org/2000/svg" xmlns:xlink="http://www.w3.org/1999/xlink" version="1.1" id="mdi-car-electric-outline" width="24" height="24" viewBox="0 0 24 24"><path d="M18.92 2C18.72 1.42 18.16 1 17.5 1H6.5C5.84 1 5.29 1.42 5.08 2L3 8V16C3 16.55 3.45 17 4 17H5C5.55 17 6 16.55 6 16V15H18V16C18 16.55 18.45 17 19 17H20C20.55 17 21 16.55 21 16V8L18.92 2M6.85 3H17.14L18.22 6.11H5.77L6.85 3M19 13H5V8H19V13M7.5 9C8.33 9 9 9.67 9 10.5S8.33 12 7.5 12 6 11.33 6 10.5 6.67 9 7.5 9M16.5 9C17.33 9 18 9.67 18 10.5S17.33 12 16.5 12C15.67 12 15 11.33 15 10.5S15.67 9 16.5 9M7 20H11V18L17 21H13V23L7 20Z" /></svg>
